docs/styles/img/icons/sale.svg

<svg width="100" height="36" viewBox="0 0 100 36" fill="none" xmlns="http://www.w3.org/2000/svg">
<rect x="0.882812" width="98.65" height="35.3972" fill="#FF9900"/>
<path d="M27.8771 19.8025H25.442C25.4313 20.5071 25.5595 21.1156 25.8265 21.628C26.0935 22.1404 26.4513 22.5621 26.8999 22.893C27.3591 23.224 27.8824 23.4642 28.4698 23.6136C29.0679 23.7738 29.682 23.8538 30.3121 23.8538C31.0918 23.8538 31.7753 23.7631 32.3627 23.5816C32.9608 23.4001 33.4574 23.1492 33.8526 22.829C34.2584 22.498 34.5628 22.1084 34.7657 21.66C34.9686 21.2117 35.0701 20.7259 35.0701 20.2028C35.0701 19.5623 34.9313 19.0392 34.6536 18.6336C34.3866 18.2172 34.0662 17.8863 33.6924 17.6408C33.3186 17.3952 32.9394 17.2191 32.5549 17.1123C32.1811 16.9949 31.8874 16.9148 31.6738 16.8721C30.9583 16.6907 30.3762 16.5412 29.9276 16.4238C29.4898 16.3063 29.1427 16.1889 28.8863 16.0715C28.6407 15.9541 28.4752 15.826 28.3897 15.6872C28.3043 15.5484 28.2616 15.3669 28.2616 15.1427C28.2616 14.8972 28.315 14.6944 28.4218 14.5342C28.5286 14.3741 28.6621 14.2407 28.8223 14.1339C28.9931 14.0272 29.18 13.9524 29.383 13.9097C29.5859 13.867 29.7888 13.8457 29.9917 13.8457C30.3015 13.8457 30.5845 13.8724 30.8408 13.9257C31.1078 13.9791 31.3428 14.0699 31.5457 14.198C31.7486 14.3261 31.9088 14.5022 32.0263 14.7264C32.1544 14.9506 32.2292 15.2335 32.2506 15.5751H34.6856C34.6856 14.9132 34.5575 14.3528 34.3011 13.8937C34.0555 13.424 33.7191 13.0397 33.2919 12.7408C32.8647 12.4419 32.3734 12.2284 31.818 12.1003C31.2733 11.9615 30.702 11.8921 30.1039 11.8921C29.5912 11.8921 29.0786 11.9615 28.5659 12.1003C28.0533 12.239 27.5941 12.4525 27.1882 12.7408C26.7824 13.029 26.4513 13.392 26.195 13.8297C25.9493 14.2567 25.8265 14.7638 25.8265 15.3509C25.8265 15.874 25.9226 16.3224 26.1149 16.696C26.3178 17.059 26.5794 17.3632 26.8999 17.6087C27.2203 17.8543 27.5834 18.0571 27.9892 18.2172C28.3951 18.3667 28.8116 18.4948 29.2388 18.6015C29.6553 18.719 30.0665 18.8257 30.4723 18.9218C30.8782 19.0179 31.2413 19.13 31.5617 19.2581C31.8821 19.3862 32.1384 19.5463 32.3307 19.7385C32.5336 19.9306 32.635 20.1815 32.635 20.4911C32.635 20.7793 32.5603 21.0195 32.4108 21.2117C32.2612 21.3932 32.0743 21.5373 31.8501 21.644C31.6258 21.7508 31.3855 21.8255 31.1292 21.8682C30.8728 21.9002 30.6325 21.9162 30.4083 21.9162C30.0772 21.9162 29.7568 21.8789 29.447 21.8042C29.1373 21.7187 28.865 21.596 28.63 21.4359C28.4057 21.265 28.2242 21.0462 28.0853 20.7793C27.9465 20.5124 27.8771 20.1868 27.8771 19.8025Z" fill="white"/>
<path d="M42.6542 19.178L44.1441 14.9826H44.1761L45.618 19.178H42.6542ZM42.8945 12.1643L38.5691 23.5976H41.1003L41.9974 21.0515H46.2748L47.1399 23.5976H49.7511L45.4738 12.1643H42.8945Z" fill="white"/>
<path d="M53.9415 12.1643V23.5976H62.0317V21.4839H56.4567V12.1643H53.9415Z" fill="white"/>
<path d="M66.6418 12.1643V23.5976H75.3247V21.4839H69.157V18.6816H74.6999V16.728H69.157V14.278H75.1965V12.1643H66.6418Z" fill="white"/>
</svg>

<svg width="100" height="36" fill="none" xmlns="http://www.w3.org/2000/svg"><path fill="#F90" d="M.883 0h98.65v35.397H.883z"/><path d="M27.877 19.802h-2.435c-.01.705.117 1.314.384 1.826s.625.934 1.074 1.265c.46.331.982.571 1.57.72a7.09 7.09 0 001.842.24c.78 0 1.463-.09 2.05-.271.599-.182 1.095-.433 1.49-.753.406-.331.71-.72.914-1.169a3.49 3.49 0 00.304-1.457c0-.64-.139-1.164-.416-1.57a3.289 3.289 0 00-.962-.992 4.043 4.043 0 00-1.137-.529 9.103 9.103 0 00-.881-.24c-.716-.181-1.298-.33-1.746-.448a6.856 6.856 0 01-1.042-.352c-.245-.118-.41-.246-.496-.385-.086-.139-.128-.32-.128-.544 0-.246.053-.449.16-.609.107-.16.24-.293.4-.4.171-.107.358-.182.561-.224a2.93 2.93 0 01.609-.064c.31 0 .592.026.849.08.267.053.502.144.705.272.203.128.363.304.48.528.128.225.203.507.225.85h2.435c0-.663-.129-1.223-.385-1.682a3.188 3.188 0 00-1.01-1.153 4.18 4.18 0 00-1.473-.64 6.916 6.916 0 00-1.714-.209c-.513 0-1.025.07-1.538.208a4.292 4.292 0 00-1.378.64 3.468 3.468 0 00-.993 1.09c-.246.427-.369.934-.369 1.52 0 .524.097.972.289 1.346.203.363.464.667.785.913.32.245.683.448 1.09.608.405.15.822.278 1.249.385.416.117.828.224 1.233.32.406.096.77.208 1.09.336.32.128.576.288.769.48.203.193.304.444.304.753 0 .288-.075.529-.224.72-.15.182-.337.326-.56.433a2.7 2.7 0 01-.722.224 5.84 5.84 0 01-.72.048c-.332 0-.652-.037-.962-.112a2.728 2.728 0 01-.817-.368 1.933 1.933 0 01-.545-.657c-.139-.267-.208-.592-.208-.977zm14.777-.624l1.49-4.195h.032l1.442 4.195h-2.964zm.24-7.014L38.57 23.598h2.53l.897-2.546h4.278l.865 2.546h2.611l-4.277-11.434h-2.58zm11.047 0v11.434h8.09v-2.114h-5.574v-9.32H53.94zm12.701 0v11.434h8.683v-2.114h-6.168v-2.802H74.7v-1.954h-5.543v-2.45h6.04v-2.114h-8.555z" fill="#fff"/></svg>
